X: 1
T:Lament for Diana  "(c) Graham Schmidt"
M:C
L:1/8
Q:80
C:Graham Schmidt
S:Slow Air
K:HP
[| {g}cd|
{gef}e2{g}A2{GAG}A2{GdG}B4{g}cd|
{gef}e2{g}A2a2{fg}fd-d2f2|  !
{gef}e2{g}Ae{g}c{d}A{gef}e2{g}c2{G}A2|
{g}ce{g}e{A}e{g}dc{gBd}B4{g}cd|
{gef}e2{g}A2{GAG}A2{GdG}B4{g}cd|  !
{gef}e2{g}A2a2{fg}fd-d2f2|
{g}ea{g}ae{g}fd{g}e2{d}c4|
{g}d2e2G2{g}A4|] [|  !
{g}dc|
{g}B4{GdGe}B2{Gdc}d4{g}fd|
{g}e2c2{G}A2{GdG}B4{g}de|  !
{g}f3adfa2d2{c}d2|
{g}ef{a}gf{g}ed{gcd}c4{G}A2|
{GdG}B2{g}Bc{gde}dB{gcd}c2{g}cd{gef}ec|  !
{gde}d2{c}de{g}fg{aef}e4{g}A2|
{g}f3adfa2d2{c}d2|
{g}e2gf{g}ed{gcd}c2{G}A2{GAG}A2|  !
{GdG}B2{g}Bc{gde}dB{gcd}c2{g}cd{gef}ec|
{g}B4{G}A2{GdG}B4|]
